X: 711
T: Zhong yangyan
%%abc-version 2.0
%%abcx-abcm2ps-target-version 5.9.1 (29 Sep 2008)
%%abc-creator hum2abc beta
%%abcx-conversion-date 2013/10/02 07:52:30
%%abc-edited-by Helmut Schaffrath
%%humdrum-veritas 260319041
%%humdrum-veritas-data 3163095223
%%continueall 1
%%barnumbers 0
L: 1/8
M: 2/4
K: A
B e f e/ e/ [I:setbarnb 1]| 
F> AB2 | 
B e f e/ e/ | 
A> F E/ F/ E | 
A A B e | 
eA2F | 
E F E/ F/ C/ C/ | 
B,4 |]  



